icon/gr/script.svg

<svg viewBox="0 0 24 24" fill="none" xmlns="http://www.w3.org/2000/svg" height="1em" width="1em">
  <path fill-rule="evenodd" clip-rule="evenodd" d="M4 1C1.79086 1 0 2.79086 0 5V6H1H5.84699L4.01005 18.8586L4 18.9289V19C4 21.2091 5.79086 23 8 23H20C22.2091 23 24 21.2091 24 19V18H23H18.153L19.99 5.14142L20 5.07107V5C20 2.79086 18.2091 1 16 1H4ZM4 3C3.25972 3 2.61337 3.4022 2.26756 4H5.73244C5.38663 3.4022 4.74028 3 4 3ZM7.46487 3H16C17.0831 3 17.9652 3.86103 17.999 4.93597L16.1327 18H11H10V19C10 20.1046 9.10457 21 8 21C6.91685 21 6.03481 20.139 6.00101 19.064L7.98995 5.14142L8 5.07107V5C8 4.27143 7.80521 3.58835 7.46487 3ZM20 21H11.4649C11.6439 20.6905 11.7827 20.3548 11.874 20H21.7324C21.3866 20.5978 20.7403 21 20 21Z" fill="black"/>
</svg>

<svg width="24" height="24" fill="none" xmlns="http://www.w3.org/2000/svg"><path fill-rule="evenodd" clip-rule="evenodd" d="M4 1a4 4 0 0 0-4 4v1h5.847L4.01 18.859l-.01.07V19a4 4 0 0 0 4 4h12a4 4 0 0 0 4-4v-1h-5.847L19.99 5.141l.01-.07V5a4 4 0 0 0-4-4H4Zm0 2a2 2 0 0 0-1.732 1h3.464A2 2 0 0 0 4 3Zm3.465 0H16a2 2 0 0 1 1.999 1.936L16.133 18H10v1a2 2 0 0 1-3.999.064L7.99 5.141l.01-.07V5c0-.729-.195-1.412-.535-2ZM20 21h-8.535c.179-.31.318-.645.409-1h9.858A2 2 0 0 1 20 21Z" fill="#000"/></svg>
